X:25
T:Grainne's Welcome Home
R:march
H:See also jig#450 and reel#953
Z:id:hn-march-25
M:C|
L:1/8
Q:1/2=80
K:Amix
e3d c2A2 | e2A2 Bcd2 | e3d c2A2 | d2G2 Bcd2 |
e3d c2A2 | e2A2 B3A | G2Bd gfge |1 d2G2 Bcdf :|2 d2G2 Bcde ||
|: c2ce agfa | e2A2 Bcde | c2ce gfec | d2G2 Bcde |
c2ce agfa | gfeg f2fe | d2ef gage |1 d2G2 Bcde :|2 d2G2 Bcdf || 

